X:3
T:The Mountain Road
C:Trad. Arr. R. Canning
M:C|
L:1/8
K:D
[| {g}c{e}c{G}ce {g}fc{g}ec | {g}c{G}c{g}ec {g}Bc{g}AB | {g}c{e}c{G}ce {g}fc{g}ec | {g}dB{g}cA {g}B2 {g}AB |
{g}c{e}c{G}ce {g}fc{g}ec | {g}c{G}c{g}ec {g}Bc{g}AB | {g}c{e}c{G}ce {g}fc{g}ec | {g}dB{g}cA {g}B2 {g}ce |]
[|: {ag}a3 f {g}eA{d}ce | a2 {g}ae {g}fe{g}fg | {ag}a3 f {g}eA{d}ce |1 {g}dB{g}cA {g}B2 {g}ce :|[2 {g}dB{g}cA {g}B2 {g}cB | {G}A8 |]
